icon-themes/breeze_svg/cmd/sc_arrowshapes.up-arrow-callout.svg

<svg viewBox="0 0 16 16" xmlns="http://www.w3.org/2000/svg">/&gt;<path d="m8 2-3 3h2v2h-5v7h12v-7h-5v-2h2z" fill="#4d4d4d"/></svg>

<svg xmlns="http://www.w3.org/2000/svg" viewBox="0 0 16 16">
     />
 <path 
     style="fill:#4d4d4d" 
     d="M 8 2 L 5 5 L 7 5 L 7 7 L 2 7 L 2 14 L 14 14 L 14 7 L 9 7 L 9 5 L 11 5 L 8 2 z "
     />
 </svg>
